Newaita-dark/.LP/22/update-none.svg

<?xml version="1.0" encoding="UTF-8"?>
<svg xmlns="http://www.w3.org/2000/svg" xmlns:xlink="http://www.w3.org/1999/xlink" width="22px" height="22px" viewBox="0 0 22 22" version="1.1">
<g id="surface1">
<path style=" stroke:none;fill-rule:nonzero;fill:rgb(25.882354%,25.882354%,25.882354%);fill-opacity:1;" d="M 10.914062 2.902344 C 10.070312 2.902344 9.496094 5.449219 8.714844 5.773438 C 7.929688 6.097656 5.726562 4.699219 5.125 5.296875 C 4.527344 5.898438 5.925781 8.101562 5.601562 8.886719 C 5.277344 9.667969 2.730469 10.242188 2.730469 11.085938 C 2.730469 11.933594 5.277344 12.507812 5.601562 13.289062 C 5.925781 14.070312 4.527344 16.277344 5.125 16.875 C 5.726562 17.472656 7.929688 16.078125 8.714844 16.402344 C 9.496094 16.726562 10.070312 19.273438 10.914062 19.273438 C 11.761719 19.273438 12.335938 16.726562 13.117188 16.402344 C 13.898438 16.078125 16.105469 17.472656 16.703125 16.875 C 17.300781 16.277344 15.90625 14.070312 16.230469 13.289062 C 16.554688 12.507812 19.101562 11.933594 19.101562 11.085938 C 19.101562 10.242188 16.554688 9.667969 16.230469 8.886719 C 15.90625 8.101562 17.300781 5.898438 16.703125 5.296875 C 16.105469 4.699219 13.898438 6.097656 13.117188 5.773438 C 12.335938 5.449219 11.761719 2.902344 10.914062 2.902344 Z M 14.117188 7.441406 C 14.441406 7.445312 14.738281 7.625 14.894531 7.90625 C 15.054688 8.191406 15.046875 8.535156 14.878906 8.8125 L 11.695312 14.273438 C 11.554688 14.515625 11.308594 14.675781 11.03125 14.714844 C 10.753906 14.75 10.472656 14.65625 10.273438 14.457031 L 7.546875 11.726562 C 7.3125 11.5 7.21875 11.164062 7.300781 10.847656 C 7.386719 10.53125 7.632812 10.285156 7.945312 10.203125 C 8.261719 10.121094 8.597656 10.214844 8.828125 10.445312 L 10.726562 12.34375 L 13.316406 7.902344 C 13.480469 7.613281 13.785156 7.4375 14.117188 7.441406 Z M 14.117188 7.441406 "/>
</g>
</svg>

<svg xmlns="http://www.w3.org/2000/svg" width="22pt" height="22pt" viewBox="0 0 22 22"><path d="M10.914 2.902c-1.328 0-.992 2.313-2.219 2.825-1.23.507-2.629-1.368-3.57-.43-.938.941.938 2.34.43 3.57-.512 1.227-2.825.89-2.825 2.219 0 1.332 2.313.992 2.825 2.223.508 1.226-1.367 2.629-.43 3.566.941.941 2.34-.934 3.57-.426 1.227.508.89 2.824 2.22 2.824 1.331 0 .991-2.316 2.222-2.824 1.226-.508 2.629 1.367 3.566.426.942-.938-.933-2.34-.426-3.566.508-1.23 2.825-.891 2.825-2.223 0-1.328-2.317-.992-2.825-2.219-.507-1.23 1.368-2.629.426-3.57-.937-.938-2.34.937-3.566.43-1.23-.512-.89-2.825-2.223-2.825zm3.195 4.54a.9.9 0 0 1 .782.456c.16.286.16.63-.008.91l-3.637 6.368a.904.904 0 0 1-1.523.074l-2.274-3.184a.9.9 0 0 1-.094-.906.893.893 0 0 1 .743-.527.891.891 0 0 1 .824.383l1.453 2.035 2.938-5.14a.91.91 0 0 1 .796-.47zm0 0" fill="#424242"/></svg>
